X: 2907
T: Barr Na Cuille
R: reel
M: 4/4
K: Dmajor
FA~A2 Bddg|~f2df ecdA|DFAF GBdg|1 fdec deAG:|2 fdec dfag||
faaf gbbg|(3fga af gedg|faag ~b3g|fdec deag|
faaf gbbg|(3fga af gedg|(3fga af ~b3g|fdec dFAG||

